img/svg/icon-font/file-percent.svg

<svg width="22" height="22" viewBox="0 0 22 22" fill="none" xmlns="http://www.w3.org/2000/svg">
<path fill-rule="evenodd" clip-rule="evenodd" d="M3.52188 20.2812H8.2007C8.67529 20.2812 9.06004 20.666 9.06004 21.1406C9.06004 21.6153 8.67529 22 8.20066 22H3.52188C1.62644 22 0.0843811 20.4579 0.0843811 18.5625V3.4375C0.0843811 1.54206 1.62644 0 3.52188 0H14.0874C15.9829 0 17.5249 1.54206 17.5249 3.4375V8.25C17.5249 8.72463 17.1402 9.10938 16.6655 9.10938C16.1909 9.10938 15.8062 8.72463 15.8062 8.25V3.4375C15.8062 2.48978 15.0351 1.71875 14.0874 1.71875H3.52188C2.57416 1.71875 1.80313 2.48978 1.80313 3.4375V18.5625C1.80313 19.5102 2.57416 20.2812 3.52188 20.2812ZM9.8338 9.45312C9.8338 8.97849 9.44906 8.59375 8.97443 8.59375H4.37677C3.90214 8.59375 3.5174 8.97849 3.5174 9.45312C3.5174 9.92776 3.90214 10.3125 4.37677 10.3125H8.97443C9.44906 10.3125 9.8338 9.92776 9.8338 9.45312ZM4.37677 12.0312C3.90214 12.0312 3.5174 12.416 3.5174 12.8906C3.5174 13.3653 3.90214 13.75 4.37677 13.75H6.22443C6.69906 13.75 7.0838 13.3653 7.0838 12.8906C7.0838 12.416 6.69906 12.0312 6.22443 12.0312H4.37677ZM14.0877 6.01562C14.0877 5.54099 13.703 5.15625 13.2283 5.15625H4.37677C3.90214 5.15625 3.5174 5.54099 3.5174 6.01562C3.5174 6.49026 3.90214 6.875 4.37677 6.875H13.2283C13.703 6.875 14.0877 6.49026 14.0877 6.01562ZM12.0994 21.4502C11.9382 21.4502 11.7747 21.4113 11.6229 21.3292C11.1351 21.0655 10.9534 20.4563 11.2171 19.9685L16.2394 11.9555C16.5029 11.4678 17.1121 11.2861 17.6 11.5498C18.0878 11.8134 18.2695 12.4225 18.0058 12.9104L12.9835 20.9234C12.8019 21.2593 12.4563 21.4502 12.0994 21.4502ZM14.4409 13.5615C14.4409 12.1775 13.3149 11.0515 11.9309 11.0515C10.5469 11.0515 9.42087 12.1775 9.42087 13.5615C9.42087 14.9456 10.5469 16.0715 11.9309 16.0715C13.3149 16.0715 14.4409 14.9456 14.4409 13.5615ZM11.9309 14.0635C11.6541 14.0635 11.4289 13.8383 11.4289 13.5615C11.4289 13.2847 11.6541 13.0595 11.9309 13.0595C12.2077 13.0595 12.4329 13.2847 12.4329 13.5615C12.4329 13.8383 12.2077 14.0635 11.9309 14.0635ZM20.42 19.01C20.42 20.394 19.294 21.52 17.91 21.52C16.526 21.52 15.4 20.394 15.4 19.01C15.4 17.6259 16.526 16.5 17.91 16.5C19.294 16.5 20.42 17.6259 20.42 19.01ZM18.412 19.01C18.412 18.7332 18.1868 18.508 17.91 18.508C17.6332 18.508 17.408 18.7332 17.408 19.01C17.408 19.2868 17.6332 19.512 17.91 19.512C18.1868 19.512 18.412 19.2868 18.412 19.01Z" fill="#4C51CB"/>
</svg>

<svg width="22" height="22" fill="none" xmlns="http://www.w3.org/2000/svg"><path fill-rule="evenodd" clip-rule="evenodd" d="M3.522 20.281H8.2A.86.86 0 018.2 22H3.52a3.441 3.441 0 01-3.437-3.438V3.438A3.441 3.441 0 013.522 0h10.565a3.441 3.441 0 013.438 3.438V8.25a.86.86 0 11-1.719 0V3.437a1.72 1.72 0 00-1.719-1.718H3.522a1.72 1.72 0 00-1.719 1.718v15.126a1.72 1.72 0 001.719 1.718zM9.834 9.453a.86.86 0 00-.86-.86H4.377a.86.86 0 100 1.72h4.597a.86.86 0 00.86-.86zm-5.457 2.578a.86.86 0 000 1.719h1.847a.86.86 0 100-1.719H4.377zm9.71-6.015a.86.86 0 00-.859-.86H4.377a.86.86 0 100 1.719h8.851a.86.86 0 00.86-.86zM12.1 21.45a1.004 1.004 0 01-.882-1.482l5.022-8.012a1.004 1.004 0 111.767.954l-5.023 8.013a1.004 1.004 0 01-.884.527zm2.342-7.888a2.513 2.513 0 00-2.51-2.51 2.513 2.513 0 00-2.51 2.51 2.513 2.513 0 002.51 2.51 2.513 2.513 0 002.51-2.51zm-2.51.502a.503.503 0 11.001-1.006.503.503 0 01-.001 1.005zm8.489 4.946a2.513 2.513 0 01-2.51 2.51 2.513 2.513 0 01-2.51-2.51 2.513 2.513 0 012.51-2.51 2.513 2.513 0 012.51 2.51zm-2.008 0a.503.503 0 10-1.005.001.503.503 0 001.005-.001z" fill="#4C51CB"/></svg>
